svg/fluentui-system-icons/ic_fluent_scan_type_24_regular.svg

<svg width="24" height="24" viewBox="0 0 24 24" fill="none" xmlns="http://www.w3.org/2000/svg">
<path d="M5.25 3.5C4.2835 3.5 3.5 4.2835 3.5 5.25V8.25C3.5 8.66421 3.16421 9 2.75 9C2.33579 9 2 8.66421 2 8.25V5.25C2 3.45507 3.45507 2 5.25 2H8.25C8.66421 2 9 2.33579 9 2.75C9 3.16421 8.66421 3.5 8.25 3.5H5.25ZM5.25 20.5C4.2835 20.5 3.5 19.7165 3.5 18.75V15.75C3.5 15.3358 3.16421 15 2.75 15C2.33579 15 2 15.3358 2 15.75V18.75C2 20.5449 3.45507 22 5.25 22H8.25C8.66421 22 9 21.6642 9 21.25C9 20.8358 8.66421 20.5 8.25 20.5H5.25ZM20.5 5.25C20.5 4.2835 19.7165 3.5 18.75 3.5H15.75C15.3358 3.5 15 3.16421 15 2.75C15 2.33579 15.3358 2 15.75 2H18.75C20.5449 2 22 3.45507 22 5.25V8.25C22 8.66421 21.6642 9 21.25 9C20.8358 9 20.5 8.66421 20.5 8.25V5.25ZM18.75 20.5C19.7165 20.5 20.5 19.7165 20.5 18.75V15.75C20.5 15.3358 20.8358 15 21.25 15C21.6642 15 22 15.3358 22 15.75V18.75C22 20.5449 20.5449 22 18.75 22H15.75C15.3358 22 15 21.6642 15 21.25C15 20.8358 15.3358 20.5 15.75 20.5H18.75ZM7.75 6C7.33579 6 7 6.33579 7 6.75V8C7 8.41421 7.33579 8.75 7.75 8.75C8.16421 8.75 8.5 8.41421 8.5 8V7.5H11.25V16.5H9.75C9.33579 16.5 9 16.8358 9 17.25C9 17.6642 9.33579 18 9.75 18H14.25C14.6642 18 15 17.6642 15 17.25C15 16.8358 14.6642 16.5 14.25 16.5H12.75V7.5H15.5V8C15.5 8.41421 15.8358 8.75 16.25 8.75C16.6642 8.75 17 8.41421 17 8V6.75C17 6.33579 16.6642 6 16.25 6H7.75Z" fill="#212121"/>
</svg>

<svg xmlns="http://www.w3.org/2000/svg" width="24" height="24"><path d="M5.25 3.5A1.75 1.75 0 0 0 3.5 5.25v3a.75.75 0 0 1-1.5 0v-3A3.25 3.25 0 0 1 5.25 2h3a.75.75 0 0 1 0 1.5h-3Zm0 17a1.75 1.75 0 0 1-1.75-1.75v-3a.75.75 0 0 0-1.5 0v3A3.25 3.25 0 0 0 5.25 22h3a.75.75 0 0 0 0-1.5h-3ZM20.5 5.25a1.75 1.75 0 0 0-1.75-1.75h-3a.75.75 0 0 1 0-1.5h3A3.25 3.25 0 0 1 22 5.25v3a.75.75 0 0 1-1.5 0v-3ZM18.75 20.5a1.75 1.75 0 0 0 1.75-1.75v-3a.75.75 0 0 1 1.5 0v3A3.25 3.25 0 0 1 18.75 22h-3a.75.75 0 0 1 0-1.5h3ZM7.75 6a.75.75 0 0 0-.75.75V8a.75.75 0 0 0 1.5 0v-.5h2.75v9h-1.5a.75.75 0 0 0 0 1.5h4.5a.75.75 0 0 0 0-1.5h-1.5v-9h2.75V8A.75.75 0 0 0 17 8V6.75a.75.75 0 0 0-.75-.75h-8.5Z"/></svg>
